assets/images/brand/Sanofi.svg

<?xml version="1.0" encoding="UTF-8"?>
<svg xmlns="http://www.w3.org/2000/svg" xmlns:xlink="http://www.w3.org/1999/xlink" width="53px" height="42px" viewBox="0 0 52 42" version="1.1">
<g id="surface1">
<path style=" stroke:none;fill-rule:nonzero;fill:rgb(26.666667%,26.666667%,57.254902%);fill-opacity:1;" d="M 49.496094 40.273438 L 50.898438 40.273438 L 50.898438 30.496094 L 49.496094 30.496094 Z M 49.496094 40.273438 "/>
<path style=" stroke:none;fill-rule:evenodd;fill:rgb(26.666667%,26.666667%,57.254902%);fill-opacity:1;" d="M 34.125 31.78125 L 33.441406 31.847656 L 32.726562 32.078125 C 29.621094 33.484375 30.097656 38.253906 33.441406 38.988281 L 34.125 39.054688 L 34.84375 38.988281 C 38.332031 38.296875 38.546875 33.210938 35.527344 32.078125 L 34.84375 31.847656 Z M 34.125 30.429688 L 34.710938 30.429688 L 35.199219 30.496094 C 40.65625 31.917969 40.210938 39.640625 34.613281 40.335938 L 33.636719 40.335938 C 28.042969 39.503906 27.609375 31.925781 33.148438 30.496094 L 33.636719 30.429688 Z M 4.390625 31.648438 L 4.035156 31.648438 L 3.773438 31.714844 L 3.480469 31.847656 L 3.1875 32.078125 L 3.054688 32.273438 L 2.925781 32.570312 L 2.859375 32.832031 L 2.859375 33.195312 L 2.925781 33.394531 L 2.992188 33.6875 L 3.1875 33.917969 L 3.414062 34.050781 L 4.035156 34.316406 L 5.988281 35.039062 L 6.410156 35.234375 L 6.703125 35.464844 L 7.0625 35.894531 L 7.324219 36.324219 C 8.671875 40.191406 3.113281 42 1.363281 38.660156 L 1.167969 38.066406 L 1.101562 37.441406 L 2.4375 37.441406 L 2.503906 37.871094 L 2.632812 38.230469 L 2.859375 38.496094 L 3.054688 38.789062 L 3.351562 38.921875 L 3.609375 39.054688 L 3.96875 39.152344 L 4.683594 39.152344 L 4.945312 39.054688 L 5.304688 38.921875 L 5.597656 38.789062 C 6.320312 37.9375 6.421875 36.953125 5.367188 36.324219 L 4.816406 36.027344 L 4.035156 35.828125 L 3.1875 35.53125 L 2.566406 35.171875 L 2.078125 34.808594 L 1.722656 34.414062 L 1.527344 33.820312 L 1.429688 33.195312 L 1.527344 32.636719 L 1.65625 32.078125 L 1.949219 31.582031 L 2.273438 31.222656 L 2.699219 30.859375 C 3.933594 30.015625 5.707031 30.273438 6.703125 31.484375 L 7.0625 31.910156 L 7.257812 32.472656 L 7.324219 33.0625 L 5.921875 33.0625 L 5.855469 32.703125 C 5.734375 32.140625 5.226562 31.75 4.683594 31.648438 Z M 42.398438 30.496094 L 46.957031 30.496094 L 46.957031 31.847656 L 42.820312 31.847656 L 42.820312 34.972656 L 46.957031 34.972656 L 46.957031 36.324219 L 42.820312 36.324219 L 42.820312 40.273438 L 41.421875 40.273438 L 41.421875 31.484375 L 41.484375 31.054688 L 41.714844 30.792969 L 42.007812 30.5625 Z M 20.804688 32.769531 L 20.804688 40.273438 L 19.40625 40.273438 L 19.40625 31.417969 L 19.46875 30.992188 L 19.699219 30.726562 L 19.957031 30.496094 L 20.382812 30.429688 L 20.609375 30.429688 L 20.871094 30.5625 L 21 30.726562 L 21.230469 30.925781 L 25.429688 38 L 25.496094 30.496094 L 26.894531 30.496094 L 26.894531 39.351562 L 26.832031 39.777344 L 26.636719 40.074219 L 26.277344 40.273438 L 25.917969 40.335938 L 25.65625 40.335938 L 25.429688 40.273438 L 25.234375 40.140625 L 25.070312 39.910156 Z M 13.023438 32.339844 L 11.621094 36.222656 L 14.488281 36.222656 Z M 11.132812 37.507812 L 10.15625 40.273438 L 8.65625 40.273438 L 12.109375 31.054688 L 12.242188 30.792969 L 12.46875 30.5625 L 12.730469 30.496094 L 13.023438 30.429688 L 13.316406 30.496094 L 13.574219 30.5625 L 13.804688 30.792969 L 13.933594 31.054688 L 17.351562 40.273438 L 15.886719 40.273438 L 14.910156 37.507812 Z M 11.132812 37.507812 "/>
<path style=" stroke:none;fill-rule:nonzero;fill:rgb(73.72549%,63.921569%,41.568627%);fill-opacity:1;" d="M 38 9.136719 L 37.21875 8.148438 L 36.859375 7.722656 L 36.4375 7.359375 C 34.617188 5.769531 32.160156 6.175781 30.054688 6.863281 L 28.394531 7.359375 L 27.546875 7.589844 C 25.253906 8.0625 22.847656 7.804688 21.914062 5.316406 L 21.78125 4.660156 L 21.71875 4.035156 L 21.847656 3.410156 L 22.074219 2.75 C 22.949219 0.554688 26.25 0 28.296875 0.578125 L 29.304688 0.777344 L 30.21875 1.074219 C 33.011719 2.003906 35.230469 3.941406 36.796875 6.4375 L 37.285156 7.292969 Z M 38 9.136719 "/>
<path style=" stroke:none;fill-rule:evenodd;fill:rgb(26.666667%,26.666667%,57.254902%);fill-opacity:1;" d="M 38.132812 9.5 L 38.261719 10.253906 L 38.488281 11.109375 C 39.019531 15.355469 37.417969 19.824219 34.058594 22.5 L 33.082031 23.289062 L 32.105469 23.847656 C 28.402344 25.957031 23.617188 25.898438 19.957031 23.714844 L 19.113281 23.15625 L 18.265625 22.5 L 18.917969 22.730469 L 19.601562 22.859375 C 22.933594 23.386719 25.765625 22.425781 27.742188 19.601562 L 28.523438 18.320312 L 29.144531 17.066406 C 30.695312 13.554688 31.832031 9.679688 36.242188 9.332031 L 37.152344 9.332031 Z M 38.132812 9.5 "/>
<path style=" stroke:none;fill-rule:evenodd;fill:rgb(67.45098%,70.196078%,9.019608%);fill-opacity:1;" d="M 21.652344 21.511719 L 21 21.808594 C 15.890625 23.105469 13.414062 16.070312 13.804688 12.097656 L 13.867188 11.40625 L 14.355469 12.03125 L 14.910156 12.59375 C 17.210938 15.023438 19.3125 14.839844 22.011719 16.34375 L 22.269531 16.640625 L 22.5 16.902344 C 23.476562 18.152344 23.261719 19.863281 22.269531 21.019531 L 21.914062 21.25 Z M 21.652344 21.511719 "/>
</g>
</svg>

<svg xmlns="http://www.w3.org/2000/svg" width="210" height="100" viewBox="0 0 52 42">
  <path style="stroke:none;fill-rule:nonzero;fill:#444492;fill-opacity:1" d="M49.496 40.273h1.402v-9.777h-1.402Zm0 0"/>
  <path style="stroke:none;fill-rule:evenodd;fill:#444492;fill-opacity:1" d="m34.125 31.781-.684.067-.714.23c-3.106 1.406-2.63 6.176.714 6.91l.684.067.719-.067c3.488-.691 3.703-5.777.683-6.91l-.683-.23Zm0-1.351h.586l.488.066c5.457 1.422 5.012 9.145-.586 9.84h-.976c-5.594-.832-6.028-8.41-.489-9.84l.489-.066ZM4.391 31.648h-.356l-.262.067-.293.133-.292.23-.133.195-.13.297-.066.262v.363l.067.2.066.292.196.231.226.133.621.265 1.953.723.422.195.293.23.36.43.261.43c1.348 3.867-4.21 5.676-5.96 2.336l-.196-.594-.066-.625h1.335l.067.43.129.36.226.265.196.293.297.133.257.133.36.097h.715l.261-.097.36-.133.293-.133c.722-.852.824-1.836-.23-2.465l-.552-.297-.78-.199-.848-.297-.622-.36-.488-.362-.355-.395-.196-.594-.097-.625.097-.558.13-.559.292-.496.324-.36.426-.363c1.235-.843 3.008-.586 4.004.625l.36.426.195.563.066.59H5.922l-.067-.36c-.12-.562-.628-.953-1.171-1.055Zm38.007-1.152h4.559v1.352H42.82v3.125h4.137v1.351H42.82v3.95h-1.398v-8.79l.062-.43.23-.261.294-.23ZM20.805 32.77v7.503h-1.399v-8.855l.063-.426.23-.265.258-.23.426-.067h.226l.262.133.129.164.23.199L25.43 38l.066-7.504h1.399v8.856l-.063.425-.195.297-.36.2-.359.062h-.262l-.226-.063-.196-.132-.164-.23Zm-7.782-.43-1.402 3.883h2.867Zm-1.89 5.168-.977 2.765h-1.5l3.453-9.218.133-.262.227-.23.261-.067.293-.066.293.066.258.067.23.23.13.262 3.418 9.218h-1.465l-.977-2.765Zm0 0"/>
  <path style="stroke:none;fill-rule:nonzero;fill:#bca36a;fill-opacity:1" d="m38 9.137-.781-.989-.36-.425-.422-.364c-1.82-1.59-4.277-1.183-6.382-.496l-1.66.496-.848.23c-2.293.473-4.7.216-5.633-2.273l-.133-.656-.062-.625.129-.625.226-.66C22.95.555 26.25 0 28.297.578l1.008.2.914.296c2.793.93 5.011 2.867 6.578 5.364l.488.855Zm0 0"/>
  <path style="stroke:none;fill-rule:evenodd;fill:#444492;fill-opacity:1" d="m38.133 9.5.129.754.226.855c.532 4.246-1.07 8.715-4.43 11.391l-.976.79-.977.558c-3.703 2.109-8.488 2.05-12.148-.133l-.844-.559-.847-.656.652.23.684.13c3.332.527 6.164-.434 8.14-3.258l.781-1.282.622-1.254c1.55-3.511 2.687-7.386 7.097-7.734h.91Zm0 0"/>
  <path style="stroke:none;fill-rule:evenodd;fill:#acb317;fill-opacity:1" d="m21.652 21.512-.652.297c-5.11 1.296-7.586-5.739-7.195-9.711l.062-.692.488.625.555.563c2.3 2.43 4.402 2.246 7.102 3.75l.258.297.23.261c.977 1.25.762 2.961-.23 4.118l-.356.23Zm0 0"/>
</svg>
